public/images/hashed/e1688a86721132443fcd7ef1797a21b8.svg

<svg xmlns="http://www.w3.org/2000/svg" width="80" height="80"><defs><linearGradient id="a" x1="0%" x2="100%" y1="100%" y2="0%"><stop offset="0%" stop-color="#BD0816"/><stop offset="100%" stop-color="#FF5252"/></linearGradient></defs><g fill="none" fill-rule="evenodd"><path fill="url(#a)" d="M0 0h80v80H0z"/><path fill="#FFF" d="M44.17 41.245c0 .172-.048 3.839-3 4.526V34.786l3 1.3v5.159Zm-8-.016v-5.143l3-1.3v10.988c-2.875-.66-2.997-4.115-3-4.545Zm9.397-6.717-5-2.167a.996.996 0 0 0-.794 0l-5 2.167a.998.998 0 0 0-.603.918v5.799c0 2.305 1.254 6.663 6 6.663s6-4.348 6-6.647V35.43a.998.998 0 0 0-.603-.918ZM58.99 54.174a3.225 3.225 0 0 1-3.222-3.222 3.226 3.226 0 0 1 3.222-3.223 3.226 3.226 0 0 1 3.223 3.223 3.225 3.225 0 0 1-3.223 3.222Zm-18.723-4.222c-5.527 0-10.023-4.496-10.023-10.022 0-5.527 4.496-10.023 10.023-10.023 5.526 0 10.022 4.496 10.022 10.023 0 5.526-4.496 10.022-10.022 10.022Zm3.241 11.857a3.226 3.226 0 0 1-3.223 3.223 3.226 3.226 0 0 1-3.222-3.223 3.226 3.226 0 0 1 3.222-3.222 3.226 3.226 0 0 1 3.223 3.222Zm-6.383-44.587A3.225 3.225 0 0 1 40.348 14a3.225 3.225 0 0 1 3.221 3.222 3.226 3.226 0 0 1-3.221 3.223 3.226 3.226 0 0 1-3.223-3.223ZM21.223 52.956A3.225 3.225 0 0 1 18 49.734a3.225 3.225 0 0 1 3.223-3.222 3.225 3.225 0 0 1 3.221 3.222 3.225 3.225 0 0 1-3.221 3.222ZM22.32 31.87a3.225 3.225 0 0 1-3.222-3.222 3.226 3.226 0 0 1 3.222-3.223 3.226 3.226 0 0 1 3.222 3.223 3.225 3.225 0 0 1-3.222 3.222Zm36.797-7.237a3.225 3.225 0 0 1 3.223 3.222 3.226 3.226 0 0 1-3.223 3.223 3.226 3.226 0 0 1-3.221-3.223 3.225 3.225 0 0 1 3.221-3.222Zm-.127 21.096a5.206 5.206 0 0 0-3.701 1.544l-3.966-2.628a11.956 11.956 0 0 0-.657-10.72l4.538-2.649c.958 1.095 2.348 1.802 3.913 1.802a5.229 5.229 0 0 0 5.223-5.223 5.228 5.228 0 0 0-5.223-5.222 5.227 5.227 0 0 0-5.221 5.222c0 .595.121 1.158.305 1.691l-4.673 2.727a12.005 12.005 0 0 0-8.261-4.315v-5.606c2.44-.437 4.302-2.565 4.302-5.13A5.228 5.228 0 0 0 40.348 12a5.229 5.229 0 0 0-5.223 5.222 5.23 5.23 0 0 0 4.142 5.107v5.629c-3.55.294-6.659 2.137-8.663 4.849l-3.438-2.241a5.185 5.185 0 0 0 .376-1.918 5.229 5.229 0 0 0-5.222-5.223 5.229 5.229 0 0 0-5.222 5.223 5.228 5.228 0 0 0 5.222 5.222 5.193 5.193 0 0 0 3.765-1.621l3.466 2.26a11.926 11.926 0 0 0-1.307 5.421c0 1.486.284 2.904.78 4.22l-3.861 2.196c-.958-1.113-2.36-1.834-3.94-1.834A5.228 5.228 0 0 0 16 49.734a5.228 5.228 0 0 0 5.223 5.222 5.227 5.227 0 0 0 5.221-5.222c0-.58-.117-1.128-.292-1.65l3.732-2.123c1.929 3.309 5.386 5.615 9.401 5.941v4.786a5.227 5.227 0 0 0-4.222 5.121 5.228 5.228 0 0 0 5.222 5.223 5.229 5.229 0 0 0 5.223-5.223 5.227 5.227 0 0 0-4.223-5.121V51.9a12.017 12.017 0 0 0 9.089-5.485l3.801 2.519a5.18 5.18 0 0 0-.407 2.018 5.228 5.228 0 0 0 5.222 5.222 5.229 5.229 0 0 0 5.223-5.222 5.229 5.229 0 0 0-5.223-5.223Z"/></g></svg>

<?xml version="1.0" encoding="UTF-8"?>
<svg width="80px" height="80px" viewBox="0 0 80 80" version="1.1" xmlns="http://www.w3.org/2000/svg" xmlns:xlink="http://www.w3.org/1999/xlink">
    <!-- Generator: Sketch 64 (93537) - https://sketch.com -->
    <title>Icon-Architecture/64/Arch_AWS-Security-Hub_64</title>
    <desc>Created with Sketch.</desc>
    <defs>
        <linearGradient x1="0%" y1="100%" x2="100%" y2="0%" id="linearGradient-1">
            <stop stop-color="#BD0816" offset="0%"></stop>
            <stop stop-color="#FF5252" offset="100%"></stop>
        </linearGradient>
    </defs>
    <g id="Icon-Architecture/64/Arch_AWS-Security-Hub_64" stroke="none" stroke-width="1" fill="none" fill-rule="evenodd">
        <g id="Icon-Architecture-BG/64/Security-Identity-Compliance" fill="url(#linearGradient-1)">
            <rect id="Rectangle" x="0" y="0" width="80" height="80"></rect>
        </g>
        <path d="M44.17,41.245 C44.17,41.417 44.122,45.084 41.17,45.771 L41.17,34.786 L44.17,36.086 L44.17,41.245 Z M36.17,41.229 L36.17,36.086 L39.17,34.786 L39.17,45.774 C36.295,45.114 36.173,41.659 36.17,41.229 L36.17,41.229 Z M45.567,34.512 L40.567,32.345 C40.314,32.235 40.026,32.235 39.773,32.345 L34.773,34.512 C34.406,34.67 34.17,35.031 34.17,35.43 L34.17,41.229 C34.17,43.534 35.424,47.892 40.17,47.892 C44.916,47.892 46.17,43.544 46.17,41.245 L46.17,35.43 C46.17,35.031 45.934,34.67 45.567,34.512 L45.567,34.512 Z M58.99,54.174 C57.213,54.174 55.768,52.729 55.768,50.952 C55.768,49.175 57.213,47.729 58.99,47.729 C60.768,47.729 62.213,49.175 62.213,50.952 C62.213,52.729 60.768,54.174 58.99,54.174 L58.99,54.174 Z M40.267,49.952 C34.74,49.952 30.244,45.456 30.244,39.93 C30.244,34.403 34.74,29.907 40.267,29.907 C45.793,29.907 50.289,34.403 50.289,39.93 C50.289,45.456 45.793,49.952 40.267,49.952 L40.267,49.952 Z M43.508,61.809 C43.508,63.586 42.063,65.032 40.285,65.032 C38.508,65.032 37.063,63.586 37.063,61.809 C37.063,60.033 38.508,58.587 40.285,58.587 C42.063,58.587 43.508,60.033 43.508,61.809 L43.508,61.809 Z M37.125,17.222 C37.125,15.445 38.57,14 40.348,14 C42.124,14 43.569,15.445 43.569,17.222 C43.569,18.999 42.124,20.445 40.348,20.445 C38.57,20.445 37.125,18.999 37.125,17.222 L37.125,17.222 Z M21.223,52.956 C19.445,52.956 18,51.511 18,49.734 C18,47.957 19.445,46.512 21.223,46.512 C22.999,46.512 24.444,47.957 24.444,49.734 C24.444,51.511 22.999,52.956 21.223,52.956 L21.223,52.956 Z M22.32,31.87 C20.543,31.87 19.098,30.425 19.098,28.648 C19.098,26.871 20.543,25.425 22.32,25.425 C24.097,25.425 25.542,26.871 25.542,28.648 C25.542,30.425 24.097,31.87 22.32,31.87 L22.32,31.87 Z M59.117,24.633 C60.895,24.633 62.34,26.078 62.34,27.855 C62.34,29.632 60.895,31.078 59.117,31.078 C57.341,31.078 55.896,29.632 55.896,27.855 C55.896,26.078 57.341,24.633 59.117,24.633 L59.117,24.633 Z M58.99,45.729 C57.545,45.729 56.235,46.321 55.289,47.273 L51.323,44.645 C51.943,43.196 52.289,41.603 52.289,39.93 C52.289,37.741 51.691,35.694 50.666,33.925 L55.204,31.276 C56.162,32.371 57.552,33.078 59.117,33.078 C61.997,33.078 64.34,30.735 64.34,27.855 C64.34,24.975 61.997,22.633 59.117,22.633 C56.238,22.633 53.896,24.975 53.896,27.855 C53.896,28.45 54.017,29.013 54.201,29.546 L49.528,32.273 C47.522,29.85 44.582,28.233 41.267,27.958 L41.267,22.352 C43.707,21.915 45.569,19.787 45.569,17.222 C45.569,14.343 43.227,12 40.348,12 C37.468,12 35.125,14.343 35.125,17.222 C35.125,19.731 36.904,21.829 39.267,22.329 L39.267,27.958 C35.717,28.252 32.608,30.095 30.604,32.807 L27.166,30.566 C27.402,29.971 27.542,29.327 27.542,28.648 C27.542,25.768 25.199,23.425 22.32,23.425 C19.441,23.425 17.098,25.768 17.098,28.648 C17.098,31.528 19.441,33.87 22.32,33.87 C23.802,33.87 25.134,33.244 26.085,32.249 L29.551,34.509 C28.722,36.14 28.244,37.978 28.244,39.93 C28.244,41.416 28.528,42.834 29.024,44.15 L25.163,46.346 C24.205,45.233 22.803,44.512 21.223,44.512 C18.343,44.512 16,46.854 16,49.734 C16,52.614 18.343,54.956 21.223,54.956 C24.102,54.956 26.444,52.614 26.444,49.734 C26.444,49.154 26.327,48.606 26.152,48.084 L29.884,45.961 C31.813,49.27 35.27,51.576 39.285,51.902 L39.285,56.688 C36.883,57.156 35.063,59.272 35.063,61.809 C35.063,64.689 37.405,67.032 40.285,67.032 C43.165,67.032 45.508,64.689 45.508,61.809 C45.508,59.272 43.688,57.156 41.285,56.688 L41.285,51.9 C45.1,51.578 48.406,49.471 50.374,46.415 L54.175,48.934 C53.913,49.555 53.768,50.237 53.768,50.952 C53.768,53.831 56.11,56.174 58.99,56.174 C61.87,56.174 64.213,53.831 64.213,50.952 C64.213,48.072 61.87,45.729 58.99,45.729 L58.99,45.729 Z" id="AWS-Security-Hub_Icon_64_Squid" fill="#FFFFFF"></path>
    </g>
</svg>
